src/assets/flipbookicon.svg

<svg width="56" height="56" viewBox="0 0 56 56" fill="none" xmlns="http://www.w3.org/2000/svg">
<path d="M48.5445 8.97985C47.7206 9.40256 46.6333 10.1736 44.9689 11.3625L41.2792 13.9979C40.5356 14.5291 40.0724 14.862 39.7383 15.1493C39.431 15.4139 39.3302 15.5602 39.2746 15.668C39.2191 15.7759 39.1587 15.943 39.122 16.3468C39.0824 16.7856 39.0807 17.356 39.0807 18.27V37.732C39.0807 38.6459 39.0824 39.2164 39.122 39.6551C39.1587 40.059 39.2191 40.2261 39.2746 40.3339C39.3302 40.4419 39.431 40.5882 39.7383 40.8526C40.0724 41.14 40.5356 41.4728 41.2792 42.0041L44.9689 44.6396C46.6333 45.8284 47.7206 46.5993 48.5445 47.0221C48.9367 47.2233 49.1521 47.2837 49.2543 47.2993C49.301 47.2069 49.377 46.9969 49.4412 46.5606C49.5761 45.6445 49.5807 44.3115 49.5807 42.2661V13.7359C49.5807 11.6905 49.5761 10.3574 49.4412 9.44129C49.377 9.00512 49.301 8.79496 49.2543 8.7026C49.1521 8.71828 48.9367 8.7786 48.5445 8.97985Z" fill="#F9AFB2"/>
<path d="M6.74052 8.7026C6.84281 8.71828 7.05802 8.7786 7.45025 8.97985C8.27417 9.40256 9.36162 10.1736 11.026 11.3625L14.7156 13.9979C15.4593 14.5291 15.9225 14.862 16.2565 15.1493C16.5639 15.4139 16.6646 15.5602 16.7201 15.668C16.7756 15.7759 16.8362 15.943 16.8727 16.3468C16.9124 16.7856 16.9141 17.356 16.9141 18.27V37.732C16.9141 38.6459 16.9124 39.2164 16.8727 39.6551C16.8362 40.059 16.7756 40.2261 16.7201 40.3339C16.6646 40.4419 16.5639 40.5882 16.2565 40.8526C15.9225 41.14 15.4593 41.4728 14.7156 42.0041L11.026 44.6396C9.36162 45.8284 8.27417 46.5993 7.45025 47.0221C7.05802 47.2233 6.84281 47.2837 6.74052 47.2993C6.69383 47.2069 6.61783 46.9969 6.5536 46.5606C6.41871 45.6445 6.41406 44.3115 6.41406 42.2661V13.7359C6.41406 11.6905 6.41871 10.3574 6.5536 9.44129C6.61783 9.00512 6.69383 8.79496 6.74052 8.7026Z" fill="#F9AFB2"/>
<path fill-rule="evenodd" clip-rule="evenodd" d="M12.9464 8.43288C12.9842 8.45992 13.0222 8.48708 13.0604 8.51431L16.8065 11.1901C17.4766 11.6687 18.0709 12.0932 18.5393 12.4962C19.0473 12.9333 19.4998 13.4205 19.8322 14.0664C20.1646 14.7123 20.2981 15.3637 20.3585 16.0312C20.4142 16.6466 20.4141 17.3769 20.4141 18.2004V37.8014C20.4141 38.6248 20.4142 39.3552 20.3585 39.9705C20.298 40.638 20.1646 41.2895 19.8322 41.9354C19.4998 42.5812 19.0473 43.0684 18.5393 43.5057C18.0709 43.9087 17.4767 44.3331 16.8065 44.8117L12.9464 47.569C11.428 48.6535 10.1294 49.5812 9.04796 50.1361C7.94506 50.7019 6.54203 51.1581 5.12896 50.4308C3.71589 49.7037 3.27156 48.297 3.09096 47.0706C2.91388 45.868 2.91397 44.2722 2.91407 42.406V13.7358C2.91407 13.6889 2.91407 13.6422 2.91407 13.5957C2.91397 11.7296 2.91388 10.1338 3.09096 8.93126C3.27156 7.7049 3.71589 6.29809 5.12896 5.57088C6.54203 4.8437 7.94506 5.29982 9.04796 5.86568C10.1294 6.42054 11.428 7.34818 12.9464 8.43288ZM6.74052 8.7025C6.84282 8.71818 7.05802 8.77849 7.45025 8.97974C8.27418 9.40245 9.36163 10.1735 11.026 11.3624L14.7156 13.9978C15.4593 14.529 15.9225 14.8619 16.2565 15.1492C16.5639 15.4137 16.6646 15.5601 16.7201 15.6679C16.7756 15.7758 16.8362 15.9429 16.8727 16.3467C16.9124 16.7855 16.9141 17.3559 16.9141 18.2699V37.7319C16.9141 38.6458 16.9124 39.2163 16.8727 39.655C16.8362 40.0589 16.7756 40.226 16.7201 40.3338C16.6646 40.4418 16.5639 40.5881 16.2565 40.8525C15.9225 41.1399 15.4593 41.4727 14.7156 42.004L11.026 44.6395C9.36163 45.8283 8.27418 46.5992 7.45025 47.022C7.05802 47.2232 6.84282 47.2836 6.74052 47.2992C6.69383 47.2068 6.61784 46.9968 6.5536 46.5605C6.41871 45.6444 6.41407 44.3114 6.41407 42.266V13.7358C6.41407 11.6904 6.41871 10.3573 6.5536 9.44118C6.61784 9.00501 6.69383 8.79485 6.74052 8.7025ZM48.5445 8.97974C47.7206 9.40245 46.6333 10.1735 44.9689 11.3624L41.2792 13.9978C40.5356 14.529 40.0724 14.8619 39.7383 15.1492C39.431 15.4137 39.3302 15.5601 39.2746 15.6679C39.2191 15.7758 39.1587 15.9429 39.122 16.3467C39.0824 16.7855 39.0807 17.3559 39.0807 18.2699V37.7319C39.0807 38.6458 39.0824 39.2163 39.122 39.655C39.1587 40.0589 39.2191 40.226 39.2746 40.3338C39.3302 40.4418 39.431 40.5881 39.7383 40.8525C40.0724 41.1399 40.5356 41.4727 41.2792 42.004L44.9689 44.6395C46.6333 45.8283 47.7206 46.5992 48.5445 47.022C48.9367 47.2232 49.1521 47.2836 49.2543 47.2992C49.301 47.2068 49.377 46.9968 49.4412 46.5605C49.5761 45.6444 49.5807 44.3114 49.5807 42.266V13.7358C49.5807 11.6904 49.5761 10.3573 49.4412 9.44118C49.377 9.00501 49.301 8.79485 49.2543 8.7025C49.1521 8.71818 48.9367 8.77849 48.5445 8.97974ZM50.8659 5.57088C52.279 6.29809 52.7233 7.7049 52.9039 8.93126C53.081 10.1338 53.081 11.7296 53.0807 13.5957V42.406C53.081 44.2722 53.081 45.868 52.9039 47.0706C52.7233 48.297 52.279 49.7037 50.8659 50.4308C49.4529 51.1581 48.0498 50.7019 46.9469 50.1361C45.8654 49.5812 44.5669 48.6535 43.0483 47.569L39.1883 44.8117C38.5182 44.3331 37.9239 43.9087 37.4556 43.5057C36.9474 43.0684 36.4949 42.5812 36.1627 41.9354C35.8302 41.2895 35.6967 40.638 35.6363 39.9705C35.5807 39.3552 35.5807 38.6248 35.5807 37.8014V18.2004C35.5807 17.3768 35.5807 16.6466 35.6363 16.0312C35.6967 15.3637 35.8302 14.7123 36.1627 14.0664C36.4949 13.4205 36.9474 12.9333 37.4556 12.4962C37.9239 12.0932 38.5182 11.6687 39.1883 11.1901C39.2072 11.1767 39.2261 11.1632 39.245 11.1497L42.9345 8.51431C42.9725 8.48706 43.0105 8.45992 43.0486 8.43288C44.5669 7.34818 45.8654 6.42054 46.9469 5.86568C48.0498 5.29982 49.4529 4.8437 50.8659 5.57088Z" fill="#B30000" stroke="white"/>
<path fill-rule="evenodd" clip-rule="evenodd" d="M28 21.5832C28.9665 21.5832 29.75 22.3667 29.75 23.3332V32.6665C29.75 33.633 28.9665 34.4165 28 34.4165C27.0335 34.4165 26.25 33.633 26.25 32.6665V23.3332C26.25 22.3667 27.0335 21.5832 28 21.5832ZM28 2.9165C28.9665 2.9165 29.75 3.70001 29.75 4.6665V13.9998C29.75 14.9663 28.9665 15.7498 28 15.7498C27.0335 15.7498 26.25 14.9663 26.25 13.9998V4.6665C26.25 3.70001 27.0335 2.9165 28 2.9165ZM28 40.2498C28.9665 40.2498 29.75 41.0334 29.75 41.9998V51.3332C29.75 52.2996 28.9665 53.0832 28 53.0832C27.0335 53.0832 26.25 52.2996 26.25 51.3332V41.9998C26.25 41.0334 27.0335 40.2498 28 40.2498Z" fill="#B30000"/>
</svg>

<svg width="56" height="56" viewBox="0 0 56 56" fill="none" xmlns="http://www.w3.org/2000/svg">
    <path d="M48.546 8.98c-.824.423-1.91 1.194-3.575 2.383l-3.69 2.635c-.743.531-1.207.864-1.54 1.151-.308.265-.409.411-.464.519-.056.108-.116.275-.153.679-.04.439-.041 1.009-.041 1.923v19.462c0 .914.001 1.484.041 1.923.037.404.097.571.153.679.055.108.156.254.463.519.334.287.797.62 1.541 1.151l3.69 2.636c1.664 1.188 2.752 1.96 3.575 2.382.393.201.608.262.71.277.047-.092.123-.302.187-.738.135-.916.14-2.25.14-4.295v-28.53c0-2.046-.005-3.379-.14-4.295-.064-.436-.14-.646-.187-.738-.102.015-.317.076-.71.277zM6.742 8.703c.103.015.318.076.71.277.824.423 1.912 1.194 3.576 2.383l3.69 2.635c.743.531 1.206.864 1.54 1.151.308.265.409.411.464.519.056.108.116.275.153.679.04.439.041 1.009.041 1.923v19.462c0 .914-.002 1.484-.041 1.923-.037.404-.097.571-.153.679-.055.108-.156.254-.464.519-.334.287-.797.62-1.54 1.151l-3.69 2.636c-1.664 1.188-2.752 1.96-3.576 2.382-.392.201-.607.262-.71.277-.046-.092-.122-.302-.186-.738-.135-.916-.14-2.25-.14-4.295v-28.53c0-2.046.005-3.379.14-4.295.064-.436.14-.646.186-.738z" fill="#F9AFB2"/>
    <path fill-rule="evenodd" clip-rule="evenodd" d="m12.948 8.433.114.081 3.746 2.676c.67.479 1.265.903 1.733 1.306.508.437.96.925 1.293 1.57.333.646.466 1.298.526 1.965.056.616.056 1.346.056 2.17v19.6c0 .824 0 1.554-.056 2.17-.06.667-.193 1.319-.526 1.964-.332.646-.785 1.133-1.293 1.57-.468.404-1.062.828-1.733 1.307l-3.86 2.757c-1.518 1.084-2.817 2.012-3.898 2.567-1.103.566-2.506 1.022-3.92.295-1.412-.727-1.856-2.134-2.037-3.36-.177-1.203-.177-2.799-.177-4.665V13.596c0-1.866 0-3.462.177-4.665.18-1.226.625-2.633 2.038-3.36 1.413-.727 2.816-.271 3.919.295 1.081.555 2.38 1.482 3.898 2.567zm-6.206.27c.103.015.318.075.71.277.824.422 1.912 1.194 3.576 2.382l3.69 2.636c.743.531 1.206.864 1.54 1.151.308.265.409.411.464.519.056.108.116.275.153.679.04.438.041 1.009.041 1.923v19.462c0 .914-.002 1.484-.041 1.923-.037.404-.097.571-.153.679-.055.108-.156.254-.464.518-.334.288-.797.62-1.54 1.152l-3.69 2.636c-1.664 1.188-2.752 1.96-3.576 2.382-.392.201-.607.262-.71.277-.046-.092-.122-.302-.186-.739-.135-.916-.14-2.249-.14-4.294v-28.53c0-2.046.005-3.379.14-4.295.064-.436.14-.646.186-.739zm41.805.277c-.824.422-1.912 1.194-3.576 2.382l-3.69 2.636c-.743.531-1.207.864-1.54 1.151-.308.265-.409.411-.464.519-.056.108-.116.275-.153.679-.04.438-.041 1.009-.041 1.923v19.462c0 .914.001 1.484.041 1.923.037.404.097.571.153.679.055.108.156.254.463.518.334.288.797.62 1.541 1.152l3.69 2.636c1.664 1.188 2.752 1.96 3.576 2.382.392.201.607.262.71.277.046-.092.122-.302.186-.739.135-.916.14-2.249.14-4.294v-28.53c0-2.046-.005-3.379-.14-4.295-.064-.436-.14-.646-.187-.739-.102.016-.317.076-.71.278zm2.32-3.41c1.414.728 1.858 2.135 2.039 3.361.177 1.203.177 2.799.177 4.665v28.81c0 1.866 0 3.462-.177 4.665-.18 1.226-.625 2.633-2.038 3.36-1.413.727-2.816.27-3.92-.295-1.08-.555-2.38-1.483-3.898-2.567l-3.86-2.757c-.67-.479-1.264-.903-1.732-1.306-.509-.438-.961-.925-1.293-1.57-.333-.647-.466-1.298-.527-1.965-.055-.616-.055-1.346-.055-2.17v-19.6c0-.824 0-1.554.055-2.17.06-.667.194-1.319.527-1.965.332-.646.784-1.133 1.293-1.57.468-.403 1.062-.827 1.732-1.306l.057-.04 3.69-2.636.114-.081c1.518-1.085 2.816-2.012 3.898-2.567 1.103-.566 2.506-1.022 3.919-.295z" fill="#014598" stroke="#fff"/>
    <path fill-rule="evenodd" clip-rule="evenodd" d="M28 21.583c.966 0 1.75.784 1.75 1.75v9.334a1.75 1.75 0 1 1-3.5 0v-9.334c0-.966.784-1.75 1.75-1.75zm0-18.666c.966 0 1.75.783 1.75 1.75V14a1.75 1.75 0 1 1-3.5 0V4.667c0-.967.784-1.75 1.75-1.75zm0 37.333c.966 0 1.75.784 1.75 1.75v9.333a1.75 1.75 0 1 1-3.5 0V42c0-.966.784-1.75 1.75-1.75z" fill="#014598"/>
</svg>
